X:1
T:Title
%%score 1 2 3
L:1/8
M:3/2
K:C
V:1 treble nm="Part_1"
V:2 treble-8 nm="Part_2"
V:3 treble-8 nm="Part_3"
V:1
 z4 z4 G4 | G8 A2 B2 | c4 d6 c2 | c6 B2 B2 A2 | c4 z4 c4 | c4 c4 d4- | d2 c2 c3 _B G4 | A4 A6 F2 | %8
 A4 G6 G2 | G4 F4 G2 E2 | G4 z4 F4 | G4 A2 c4 _B2 | A4 G6 F2 | F2 EF G3 F E2 D2 | F4 z4 G4 | %15
 A4 c6 _B2 | c4 _B2 A4 G2 | G4 A6 G2 | F2 G2 A2 F2 E3 D | F4 A6 G2 | G6 ^F2 F2 E2 | G4 z4 A4 | %22
 c4 B2 d4 c2 | A4 G4 G2 A2 | c6 _B2 G2 A2 | F2 _B2 A2 F2 E2 D2 | F4 z4 G4 | A4 c6 A2 | _B4 A4 G4 | %29
 F4 G2 A4 G2 | G4 ^F4 G2 E2 | ^F12 | G12 || A4 c4 c4 | c4 c6 c2 | c4 _B6 A2 | G4 A2 c4 _B2 | %37
 _B4 A6 G2 | G4 A2 G2 F2 E2 | G12 ||[M:2/2] A8 | A4 c4- | c4 c4 | c4 c4 | c2 c2 c4 | c4 _B4 | %46
 c4 d4 | d4 c4 | d2 c2 _B2 A2 | c8 | z4 A4- | A4 A4 | c6 c2 | c4 c4 | c4 _B4 | G4 A2 c2- | %56
 c2 _B2 A4 | G6 E2 | F8 | G8 |] %60
V:2
 z4 z4 G4 | G4 c6 d2 | e4 f6 e2 | e4 d8 | c8 A4 | F4 A4 _B4- | B2 A2 c4 _B4 | A4 c6 _B2 | d8 c4 | %9
 _B4 A8 | G4 d8 | c12 | F4 G4 _B4- | B2 A2 A4 G4 | F8 E4 | F2 G2 A6 G2 | F4 c6 _B2 | _B4 c6 B2 | %18
 A4 _B4 G4 | F8 c4 | B4 A8 | G8 F4 | F4 G2 B4 A2 | c8 c4 | c8 _B4 | A8 G4 | F4 _B8 | A8 F4 | %28
 G4 A4 _B2 c2 | d4 c6 _B2 | _B4 A6 G2 | A12 | G12 || A4 e4 e4 | c4 c6 c2 | _e4 d6 c2 | _B4 c6 d2 | %37
 d4 c6 _B2 | _B4 c4 A4 | G12 ||[M:2/2] A8 | c8 | e8 | c4 c2 c2 | e2 e2 c4 | c4 d4 | e4 d4 | f4 e4 | %48
 d8 | c8 | z4 c4- | c4 c4 | _e6 e2 | _e4 c4 | _e4 d4 | _B4 c4 | _e2 d2 c4 | _B8 | A8 | G8 |] %60
V:3
 z4 z4 C4 | C8 c4 | c4 F8 | c4 G8 | C8 F4 | A4 c4 d4 | G4 A4 G4 | F4 F6 G2 | D8 F4 | G4 D8 | %10
 z4 D8 | E4 F4 A4 | F4 G6 A2 | F4 C8 | c4 A4 G4 | z4 F6 G2 | A4 F4 C4 | G4 F6 G2 | c4 d4 B4 | %19
 c8 F4 | G4 D8 | d8 A4 | A4 G2 G4 F2 | F4 C6 C2 | C8 z4 | F8 C4 | c4 d8 | c8 c4 | z4 c4 G4 | %29
 D4 F8 | G4 D6 D2 | D12 | d12 || e4 g4 g4 | g4 g6 g2 | g4 f6 e2 | d4 e2 g4 f2 | f4 e6 d2 | %38
 d4 e2 d2 c2 B2 | d12 ||[M:2/2] e8 | e4 g4- | g4 g4 | g4 g4 | g2 g2 g4 | g4 f4 | g4 a4 | a4 g4 | %48
 a2 g2 f2 e2 | g8 | z4 e4- | e4 e4 | g6 g2 | g4 g4 | g4 f4 | d4 e2 g2- | g2 f2 e4 | d6 _B2 | c8 | %59
 d8 |] %60

